X:1
T:Save, Oh, Save!
T:Save, Oh, Save!
T:Daniel Otis Teasley
T:Clara McAlister Brooks, 1913
T:Public Domain Courtesy of the Cyber Hymnal™
T:Public Domain Courtesy of the Cyber Hymnal™
C:Daniel Otis Teasley
Z:Public Domain
Z:Courtesy of the Cyber Hymnal™
%%score ( 1 2 ) ( 3 4 )
L:1/8
Q:1/4=95
M:6/8
K:F
V:1 treble 
V:2 treble 
V:3 bass 
V:4 bass 
V:1
 [FA][FA][FA] [FB]2 [FB] | [FA]3 [CF]3 | [Fc][Fc][Fc] [EB]2 [FA] | [FA]3 [EG]3 | %4
w: 1.~O- ver the bil- lows|sigh- ing,|Mil- lions in sin are|dy- ing,|
w: 2.~Glo- ry our way o’er-|spread- ing,|Bright is the path we’re|tread- ing,|
w: 3.~Hope- less- ly blind and|weep- ing,|Sow- ing in sin and|reap- ing,|
w: 4.~Still is the Sav- ior|plead- ing,|Go with the torch of|free- dom,|
 [DF][DF][DF] [^CE]2 [=B,D] | [^CE]3- [CE]2 z | [B,D][B,D][B,D] [CE]2 [B,D] | [A,C]3 [CF]3 | %8
w: Dy- ing in sad des-|pair. *|Point them to Cal- vary’s|moun- tain,|
w: Un- der a cloud- less|sky; *|While in their sun- less|pri- son|
w: Reap- ing its sure re-|ward. *|Tell them of Je- sus’|dy- ing,|
w: Go with His love a-|flame! *|Love will be- guile the|wan- derer,|
 [FA][FA][FA] [FA]2 [EG] | [CF]3- [CF]2 z ||"^Refrain" [Ac]4 [FA][CF] | [Ac]4 [FA][CF] | %12
w: To the Re- deem- er|there. *|||
w: Help- less the hea- then|die. *|Out from the|dark- ness There|
w: How it doth life af-|ford. *|||
w: Home from his guilt and|shame. *|||
 [EG]4 [DF][EG] | ([FA]3 [Ac]3) | [Bd]4 [FB][Bd] | [Ac]4 [FA][CF] | [EG]4 [DF][CG] | F3- [CF]2 z |] %18
w: ||||||
w: comes the sad|cry: *|“Save us, oh,|save us, We|per- ish and|die.” *|
w: ||||||
w: ||||||
V:2
 x6 | x6 | x6 | x6 | x6 | x6 | x6 | x6 | x6 | x6 || x6 | x6 | x6 | x6 | x6 | x6 | x6 | CD_D x3 |] %18
V:3
 [F,C][F,C][F,C] [F,D]2 [F,_D] | [F,C]3 [F,A,]3 | [A,C][A,C][A,C] [G,C]2 [F,C] | [C,C]3 [C,B,]3 | %4
w: ~ ~ ~ ~ ~|~ ~|~ ~ ~ ~ ~|~ ~|
 [D,A,][D,A,][D,A,] [A,,A,]2 [A,,A,] | [A,,A,]3- [A,,A,]2 z | %6
w: ~ ~ ~ ~ ~|~ *|
 [B,,F,][B,,F,][B,,F,] [B,,F,]2 [B,,F,] | F,3 [F,A,]3 | [C,C][C,C][C,C] [C,C]2 [C,B,] | %9
w: ~ ~ ~ ~ ~|~ ~|~ ~ ~ ~ ~|
 [F,A,]3- [F,A,]2 z || [F,C][F,C][F,C] [F,C][F,C][F,A,] | [F,C][F,C][F,C] [F,C][F,C][F,A,] | %12
w: ~ *|Out from the dark- ness, the|soul crush- ing dark- ness, There|
 [C,C][C,C][C,C] [C,C][C,A,][C,C] | [F,C][F,C][F,C] [F,F]3 | [B,F][B,F][B,F] [B,F][B,D][B,F] | %15
w: comes from the mill- ions the|heart pierc- ing cry:|“Save us from per- ish- ing,|
 [F,F][F,F][F,F] [F,F][F,C][F,A,] | [C,B,][C,B,][C,B,] [C,B,][C,A,][C,B,] | %17
w: save us from dy- ing. Come,|save us, oh, save us, we|
 [F,A,][F,B,][F,B,] [F,A,]2 z |] %18
w: per- ish and die.”|
V:4
 x6 | x6 | x6 | x6 | x6 | x6 | x6 | F,3 x3 | x6 | x6 || x6 | x6 | x6 | x6 | x6 | x6 | x6 | x6 |] %18

